X: 22
T:Bannielou Lambaol
T:LaRidee
O:Brittany
Z:Deborah Jones, VIFD
L:1/8
M:2/4
Q:1/4=120
K:F
|: "C7" cc [cd][ce]     |"F" [c2f2] [c2f2]                 |\
   "C7" cc [cd][ce]     |"F" [c2f2] [cf] z                 |\
   "F" [fa][eg] [fa][eg]|"Bb" [df]d d2                     |\
   "C7" c[cg] [cg][Be]  |"F" [c2f2] [cf]z                  |
   "F" c[cf] [cf][cf]   |"C7" [cg][c/f/][c/e/] "F" [cf][cf]|\
   "F" c[cf] [cf][cf]   |"C7" [cg][c/f/][c/e/] "F" [cf]z   | 
   "F" [f2a2] [fa][fc'] |"Bb" [fc'][fb] [fa][fg]           | \
   "C7"[eg][eb] [ea][eg]|"F" [c2f2] [cf] z                 :|
